assets/images/_sprite_logo4.svg

<svg width="112" height="117" viewBox="0 0 112 117" fill="none" xmlns="http://www.w3.org/2000/svg">
<path fill-rule="evenodd" clip-rule="evenodd" d="M15.4752 73.5757C11.4481 73.5757 7.66292 71.9409 4.81701 68.9731C1.96977 65.9986 0.400329 62.0493 0.398317 57.8468C0.396306 53.649 1.95971 49.7045 4.80562 46.7367C5.38955 46.1278 6.06867 45.5525 6.94222 44.9241C7.17083 44.7638 7.4276 44.6001 7.68437 44.4391C8.20528 44.1178 8.73759 43.8228 9.30476 43.55C9.59639 43.4112 9.88601 43.2752 10.1937 43.1559C10.7475 42.9431 11.3589 42.7565 11.9965 42.607L12.3793 42.4951C12.4497 42.4736 12.5174 42.4493 12.5878 42.4318L15.9982 42.1759C16.4413 42.1954 16.9207 42.2614 17.4221 42.3321L17.5274 42.347C17.7024 42.3658 17.8378 42.3739 17.9752 42.3806C18.0242 42.3827 18.0731 42.3827 18.1227 42.3901L18.2689 42.417L18.407 42.4224C18.6597 42.4298 18.9091 42.4345 19.1592 42.4345C24.9281 42.4345 30.6273 39.8688 34.7912 35.3929C38.9431 30.9324 41.2285 24.9294 41.0622 18.9237L41.0582 18.7506L41.0254 18.5802C40.9905 18.3895 40.9858 18.1976 40.9738 18.0029C40.965 17.8446 40.955 17.6857 40.9389 17.5206L40.8873 17.0356C40.8524 16.748 40.8169 16.455 40.8108 16.1634L41.0368 12.8594L41.0582 12.784V12.718C41.077 12.6425 41.2004 12.204 41.2004 12.204C41.3921 11.3587 41.5624 10.7477 41.7541 10.2082C41.8607 9.91113 41.9948 9.61408 42.1289 9.30693C42.3742 8.74246 42.6619 8.16924 42.9937 7.58726L43.0453 7.497C43.1754 7.27 43.3041 7.04368 43.4509 6.81736C44.0483 5.9134 44.5973 5.20681 45.1712 4.61002C48.0198 1.63816 51.8063 0 55.8361 0C59.8627 0 63.6478 1.63546 66.4964 4.60463C72.3699 10.7369 72.3645 20.7188 66.489 26.8491C65.9078 27.458 65.2146 28.0454 64.3665 28.6449C64.1359 28.8153 63.9368 28.9372 63.7309 29.0639L63.6197 29.1319C63.0666 29.4754 62.5222 29.7752 62.0086 30.021C61.7049 30.1679 61.42 30.3012 61.1311 30.413C60.5659 30.6326 59.9659 30.8179 59.2888 30.9809C59.1467 31.0172 59.0179 31.0563 58.8899 31.0934C58.8128 31.1149 58.7337 31.1412 58.6539 31.1614L55.3132 31.4052C54.8909 31.383 54.4377 31.3244 53.963 31.2611L53.7585 31.2348C53.6043 31.2146 53.4615 31.2079 53.3241 31.1978C53.2685 31.1957 53.2121 31.1957 53.1565 31.1856L53.0439 31.1708L52.8971 31.1594C52.6477 31.1493 52.3996 31.1439 52.1502 31.1439C46.3793 31.1439 40.6794 33.7096 36.5148 38.1808C32.361 42.6413 30.0735 48.647 30.2371 54.6554L30.2418 54.8305L30.2713 55.0036C30.3075 55.1788 30.3142 55.3613 30.3256 55.5398C30.337 55.7244 30.3511 55.9049 30.3698 56.0901C30.3839 56.2363 30.4047 56.4235 30.4261 56.6094C30.4543 56.8721 30.4871 57.1301 30.4912 57.3915L30.2505 60.8194C30.2331 60.9062 30.2042 60.9965 30.1788 61.0895L30.0943 61.3966C29.9267 62.1638 29.7497 62.8024 29.5479 63.3695C29.4413 63.6673 29.3025 63.9738 29.1651 64.2883C28.9177 64.8535 28.6375 65.4119 28.311 65.9817C28.1548 66.2545 28.0093 66.5105 27.8531 66.7516C27.235 67.6872 26.702 68.3736 26.1207 68.9758C23.2748 71.9436 19.4957 73.5757 15.4752 73.5757Z" fill="#4C98C0"/>
</svg>

<svg width="112" height="117" fill="none" xmlns="http://www.w3.org/2000/svg"><path fill-rule="evenodd" clip-rule="evenodd" d="M15.475 73.576c-4.027 0-7.812-1.635-10.658-4.603C1.97 66 .4 62.05.398 57.847c-.002-4.198 1.562-8.142 4.408-11.11.584-.61 1.263-1.184 2.136-1.813a17.676 17.676 0 012.363-1.374c.291-.139.581-.275.889-.394a13.94 13.94 0 011.802-.549l.383-.112c.07-.021.138-.046.209-.063l3.41-.256c.443.02.923.085 1.424.156l.105.015c.175.019.31.027.448.034.05.002.098.002.148.01l.146.026.138.005c.253.008.502.013.752.013 5.77 0 11.468-2.566 15.632-7.042 4.152-4.46 6.438-10.464 6.271-16.47l-.004-.172-.033-.17c-.035-.191-.04-.383-.051-.578a11.479 11.479 0 00-.035-.482l-.052-.485a8.805 8.805 0 01-.076-.873l.226-3.304.021-.075v-.066c.019-.075.142-.514.142-.514.192-.845.362-1.456.554-1.996.107-.297.24-.594.375-.901.245-.565.533-1.138.865-1.72l.051-.09c.13-.227.26-.453.406-.68.597-.904 1.146-1.61 1.72-2.207C48.02 1.638 51.806 0 55.836 0c4.027 0 7.812 1.635 10.66 4.605 5.874 6.132 5.869 16.114-.007 22.244-.581.609-1.274 1.196-2.123 1.796-.23.17-.43.292-.635.419l-.111.068a16.979 16.979 0 01-2.489 1.281 14.23 14.23 0 01-1.842.568c-.142.036-.271.075-.4.112-.076.022-.155.048-.235.068l-3.34.244c-.423-.022-.876-.08-1.351-.144l-.205-.026c-.154-.02-.297-.027-.434-.037-.055-.002-.112-.002-.167-.012l-.113-.015-.147-.012c-.25-.01-.497-.015-.747-.015-5.77 0-11.47 2.566-15.635 7.037-4.154 4.46-6.442 10.466-6.278 16.474l.005.175.03.174c.036.175.042.357.054.536.011.184.025.365.044.55.014.146.035.333.056.52.028.262.061.52.065.782l-.24 3.427c-.018.087-.047.177-.072.27l-.085.308a16.118 16.118 0 01-.546 1.973c-.107.297-.245.604-.383.918a17.499 17.499 0 01-.854 1.694c-.156.272-.302.528-.458.77-.618.935-1.151 1.622-1.732 2.224-2.846 2.968-6.625 4.6-10.646 4.6z" fill="#4C98C0"/></svg>
